svg/other/hoe_line.svg

<?xml version="1.0" encoding="UTF-8"?>
<svg width="24px" height="24px" viewBox="0 0 24 24" version="1.1" xmlns="http://www.w3.org/2000/svg" xmlns:xlink="http://www.w3.org/1999/xlink">
    <title>hoe_line</title>
    <g id="Icon" stroke="none" stroke-width="1" fill="none" fill-rule="evenodd">
        <g id="Other" transform="translate(-816.000000, 0.000000)">
            <g id="hoe_line" transform="translate(816.000000, 0.000000)">
                <path d="M24,0 L24,24 L0,24 L0,0 L24,0 Z M12.5935,23.2578 L12.5819,23.2595 L12.5109,23.295 L12.4919,23.2987 L12.4767,23.295 L12.4057,23.2595 C12.3958,23.2564 12.387,23.259 12.3821,23.2649 L12.378,23.2758 L12.3609,23.7031 L12.3659,23.7235 L12.3769,23.7357 L12.4805,23.8097 L12.4953,23.8136 L12.5071,23.8097 L12.6107,23.7357 L12.6233,23.7197 L12.6267,23.7031 L12.6096,23.2758 C12.6076,23.2657 12.601,23.2593 12.5935,23.2578 Z M12.8584,23.1453 L12.8445,23.1473 L12.6598,23.2397 L12.6499,23.2499 L12.6472,23.2611 L12.6651,23.6906 L12.6699,23.7034 L12.6784,23.7105 L12.8793,23.8032 C12.8914,23.8069 12.9022,23.803 12.9078,23.7952 L12.9118,23.7812 L12.8777,23.1665 C12.8753,23.1546 12.8674,23.147 12.8584,23.1453 Z M12.143,23.1473 C12.1332,23.1424 12.1222,23.1453 12.1156,23.1526 L12.1099,23.1665 L12.0758,23.7812 C12.0751,23.7927 12.0828,23.8019 12.0926,23.8046 L12.1083,23.8032 L12.3092,23.7105 L12.3186,23.7024 L12.3225,23.6906 L12.3404,23.2611 L12.3372,23.2485 L12.3278,23.2397 L12.143,23.1473 Z" id="MingCute" fill-rule="nonzero"></path>
                <path d="M5.6359,5.63639 C4.52307,6.74923 3.99912,8.32106 4.22169,9.87903 L4.64595,12.8489 C4.69952,13.2238 4.96034,13.5364 5.31967,13.6561 C5.67901,13.7759 6.07518,13.6824 6.34301,13.4146 L9.17155,10.586 L16.9494,18.3639 C17.3399,18.7544 17.9731,18.7544 18.3636,18.3639 C18.7542,17.9734 18.7542,17.3402 18.3636,16.9497 L10.5858,9.17181 L13.4141,6.3435 C13.6819,6.07567 13.7754,5.6795 13.6557,5.32016 C13.5359,4.96083 13.2234,4.70001 12.8484,4.64644 L9.87854,4.22218 C8.32057,3.99961 6.74874,4.52356 5.6359,5.63639 Z M8.4853,8.44385 L10.5856,6.3435 L9.5957,6.20208 C8.66092,6.06854 7.71782,6.3829 7.05012,7.0506 C6.38241,7.71831 6.06805,8.66141 6.20159,9.59619 L6.34301,10.5861 L8.44358,8.48557 C8.45031,8.47844 8.45716,8.47138 8.46414,8.46441 C8.47112,8.45743 8.47817,8.45058 8.4853,8.44385 Z" id="形状" fill="#09244B"></path>
            </g>
        </g>
    </g>
</svg>

<svg xmlns="http://www.w3.org/2000/svg" width="24" height="24"><g fill="none" fill-rule="evenodd"><path d="M24 0v24H0V0h24ZM12.594 23.258l-.012.002-.071.035-.02.004-.014-.004-.071-.036c-.01-.003-.019 0-.024.006l-.004.01-.017.428.005.02.01.013.104.074.015.004.012-.004.104-.074.012-.016.004-.017-.017-.427c-.002-.01-.009-.017-.016-.018Zm.264-.113-.014.002-.184.093-.01.01-.003.011.018.43.005.012.008.008.201.092c.012.004.023 0 .029-.008l.004-.014-.034-.614c-.003-.012-.01-.02-.02-.022Zm-.715.002a.023.023 0 0 0-.027.006l-.006.014-.034.614c0 .012.007.02.017.024l.015-.002.201-.093.01-.008.003-.011.018-.43-.003-.012-.01-.01-.184-.092Z"/><path fill="#09244B" d="M5.636 5.636A5 5 0 0 0 4.222 9.88l.424 2.97a1 1 0 0 0 1.697.566l2.829-2.829 7.777 7.778a1 1 0 0 0 1.415-1.414l-7.778-7.778 2.828-2.829a1 1 0 0 0-.566-1.697l-2.97-.424a5 5 0 0 0-4.242 1.414Zm2.85 2.808 2.1-2.1-.99-.142a3 3 0 0 0-3.394 3.394l.141.99 2.1-2.1a.998.998 0 0 1 .042-.042Z"/></g></svg>
